; generated by PrusaSlicer 2.2.0+win64 on 2021-01-18 at 18:33:13 UTC

; 

; external perimeters extrusion width = 0.60mm
; perimeters extrusion width = 0.50mm
; infill extrusion width = 0.50mm
; solid infill extrusion width = 0.50mm
; top infill extrusion width = 0.45mm
; support material extrusion width = 0.38mm
; first layer extrusion width = 0.42mm

M73 P0 R136
M73 Q0 S137
M201 X1000 Y1000 Z200 E5000 ; sets maximum accelerations, mm/sec^2
M203 X200 Y200 Z12 E120 ; sets maximum feedrates, mm/sec
M204 P1250 R1250 T1250 ; sets acceleration (P, T) and retract acceleration (R), mm/sec^2
M205 X8.00 Y8.00 Z0.40 E4.50 ; sets the jerk limits, mm/sec
M205 S0 T0 ; sets the minimum extruding and travel feed rate, mm/sec
M107
M862.3 P "MK3S" ; printer model check
M862.1 P0.4 ; nozzle diameter check
M115 U3.9.3 ; tell printer latest fw version
G90 ; use absolute coordinates
M83 ; extruder relative mode
M104 S215 ; set extruder temp
M140 S60 ; set bed temp
M190 S60 ; wait for bed temp
M109 S215 ; wait for extruder temp
G28 W ; home all without mesh bed level
G80 ; mesh bed leveling
G1 Y-3.0 F1000.0 ; go outside print area
G92 E0.0
G1 X60.0 E9.0 F1000.0 ; intro line
M73 Q0 S137
M73 P0 R136
G1 X100.0 E12.5 F1000.0 ; intro line
G92 E0.0
M221 S95

; Don't change E values below. Excessive value can damage the printer.

M907 E538 ; set extruder motor current
G21 ; set units to millimeters
G90 ; use absolute coordinates
M83 ; use relative distances for extrusion
M900 K0.05 ; Filament gcode LA 1.5
M900 K30 ; Filament gcode LA 1.0
;BEFORE_LAYER_CHANGE
G92 E0.0
;0.2


G1 E-0.80000 F2100.00000
G1 Z0.400 F10800.000
;AFTER_LAYER_CHANGE
;0.2
G1 X48.673 Y109.689
G1 Z0.200
G1 E0.80000 F2100.00000
M204 S1000
G1 F1200.000
G1 X48.839 Y108.995 E0.02237
G1 X62.116 Y76.452 E1.10202
G1 X62.721 Y75.261 E0.04190
G1 X64.010 Y73.352 E0.07221
G1 X65.267 Y71.959 E0.05883
G1 X66.283 Y71.051 E0.04272
G1 X92.730 Y52.200 E1.01833
G1 X94.078 Y51.413 E0.04893
G1 X95.450 Y50.788 E0.04727
G1 X97.011 Y50.271 E0.05157
G1 X98.624 Y49.929 E0.05168
G1 X100.202 Y49.767 E0.04976
G1 X101.531 Y49.751 E0.04167
G1 X183.841 Y49.751 E2.58078
G1 X186.991 Y49.805 E0.09877
G1 X188.353 Y49.989 E0.04308
G1 X190.021 Y50.388 E0.05378
G1 X191.125 Y50.769 E0.03662
G1 X192.496 Y51.386 E0.04714
G1 X193.766 Y52.118 E0.04596
G1 X195.223 Y53.184 E0.05660
G1 X196.270 Y54.143 E0.04451
G1 X197.063 Y55.008 E0.03680
G1 X198.114 Y56.406 E0.05484
G1 X198.969 Y57.866 E0.05306
G1 X199.649 Y59.413 E0.05296
G1 X200.170 Y61.109 E0.05563
G1 X200.355 Y61.983 E0.02803
G1 X200.564 Y63.697 E0.05414
G1 X201.334 Y113.107 E1.54941
G1 X201.291 Y128.431 E0.48047
G1 X200.925 Y130.569 E0.06801
G1 X195.841 Y149.734 E0.62170
G1 X195.502 Y150.802 E0.03511
G1 X194.761 Y152.515 E0.05852
G1 X193.896 Y153.980 E0.05335
G1 X192.758 Y155.455 E0.05842
G1 X191.585 Y156.640 E0.05225
G1 X189.739 Y158.048 E0.07282
G1 X188.760 Y158.623 E0.03559
G1 X187.609 Y159.175 E0.04003
G1 X186.150 Y159.706 E0.04868
G1 X185.030 Y159.997 E0.03626
G1 X183.668 Y160.223 E0.04329
G1 X182.466 Y160.315 E0.03780
G1 X62.777 Y160.290 E3.75275
G1 X61.822 Y160.167 E0.03021
G1 X60.788 Y159.825 E0.03415
G1 X59.855 Y159.290 E0.03373
G1 X58.960 Y158.490 E0.03761
G1 X58.256 Y157.483 E0.03854
G1 X57.777 Y156.268 E0.04096
G1 X48.716 Y122.059 E1.10957
G1 X48.674 Y109.749 E0.38598
; printing object Serv_long_arm_191218.stl id:4 copy 0
G1 F8640.000
G1 X48.839 Y108.995 E-0.17822
G1 X49.791 Y106.662 E-0.58178
G1 E-0.04000 F2100.00000
G1 Z0.600 F10800.000
G1 X157.588 Y57.006
G1 Z0.200
G1 E0.80000 F2100.00000
G1 F1200.000
G1 X182.764 Y57.006 E0.78938
G1 X182.754 Y60.780 E0.11834
G1 X182.709 Y61.330 E0.01731
G1 X182.675 Y61.503 E0.00552
G1 X183.054 Y61.247 E0.01433
G1 X183.618 Y61.059 E0.01867
G1 X183.995 Y61.007 E0.01193
G1 X184.404 Y61.002 E0.01280
G1 X184.803 Y61.048 E0.01260
G1 X185.187 Y61.145 E0.01243
G1 X185.680 Y61.337 E0.01659
G1 X186.208 Y61.666 E0.01948
G1 X186.680 Y62.107 E0.02026
G1 X187.057 Y62.632 E0.02025
G1 X187.321 Y63.215 E0.02008
G1 X187.456 Y63.787 E0.01842
G1 X187.487 Y64.117 E0.01041
G1 X187.474 Y64.565 E0.01405
G1 X187.411 Y64.985 E0.01332
G1 X187.291 Y65.383 E0.01302
G1 X187.123 Y65.773 E0.01330
G1 X186.897 Y66.137 E0.01344
G1 X186.631 Y66.473 E0.01345
G1 X186.319 Y66.768 E0.01346
G1 X185.978 Y67.021 E0.01330
G1 X185.603 Y67.221 E0.01333
G1 X185.278 Y67.355 E0.01103
G1 X184.872 Y67.462 E0.01315
G1 X184.539 Y67.516 E0.01059
G1 X184.135 Y67.528 E0.01266
G1 X183.781 Y67.497 E0.01116
G1 X183.404 Y67.417 E0.01207
G1 X182.907 Y67.202 E0.01698
G1 X182.671 Y67.007 E0.00958
G1 X182.712 Y67.222 E0.00685
G1 X182.755 Y67.775 E0.01737
G1 X182.764 Y71.579 E0.11927
G1 X157.588 Y71.579 E0.78937
G1 X157.596 Y67.833 E0.11744
G1 X157.635 Y67.298 E0.01683
G1 X157.673 Y67.066 E0.00737
G1 X157.247 Y67.329 E0.01570
G1 X156.826 Y67.467 E0.01389
G1 X156.374 Y67.536 E0.01432
G1 X155.907 Y67.536 E0.01466
G1 X155.324 Y67.439 E0.01852
G1 X155.035 Y67.347 E0.00950
G1 X154.678 Y67.193 E0.01220
G1 X154.324 Y66.985 E0.01287
G1 X153.999 Y66.735 E0.01287
G1 X153.761 Y66.507 E0.01032
G1 X153.555 Y66.262 E0.01004
G1 X153.365 Y65.991 E0.01038
G1 X153.087 Y65.432 E0.01956
G1 X152.929 Y64.865 E0.01845
G1 X152.886 Y64.536 E0.01042
G1 X152.882 Y64.094 E0.01386
G1 X152.925 Y63.679 E0.01307
G1 X153.026 Y63.283 E0.01283
G1 X153.172 Y62.895 E0.01299
G1 X153.374 Y62.524 E0.01326
G1 X153.613 Y62.188 E0.01289
G1 X153.817 Y61.960 E0.00960
G1 X154.090 Y61.713 E0.01156
G1 X154.469 Y61.448 E0.01449
G1 X154.929 Y61.220 E0.01611
G1 X155.254 Y61.105 E0.01080
G1 X155.581 Y61.030 E0.01053
G1 X156.029 Y60.980 E0.01413
G1 X156.486 Y60.997 E0.01433
G1 X156.961 Y61.091 E0.01518
G1 X157.405 Y61.270 E0.01501
G1 X157.677 Y61.463 E0.01045
G1 X157.638 Y61.258 E0.00653
G1 X157.596 Y60.720 E0.01691
G1 X157.588 Y57.066 E0.11459
G1 X157.966 Y57.383 F10800.000
G1 F1200.000
G1 X182.386 Y57.383 E0.76567
G1 X182.377 Y60.764 E0.10602
G1 X182.335 Y61.278 E0.01617
G1 X182.237 Y61.774 E0.01587
G1 X182.185 Y62.248 E0.01493
G1 X182.185 Y62.515 E0.00839
G1 X182.794 Y61.877 E0.02767
G1 X183.222 Y61.589 E0.01616
G1 X183.704 Y61.428 E0.01596
G1 X184.023 Y61.384 E0.01009
G1 X184.384 Y61.380 E0.01132
G1 X184.735 Y61.419 E0.01106
G1 X185.072 Y61.505 E0.01090
G1 X185.511 Y61.676 E0.01476
G1 X185.977 Y61.967 E0.01723
G1 X186.396 Y62.357 E0.01794
G1 X186.728 Y62.821 E0.01791
G1 X186.963 Y63.338 E0.01777
G1 X187.083 Y63.848 E0.01645
G1 X187.110 Y64.130 E0.00886
G1 X187.098 Y64.531 E0.01261
G1 X187.042 Y64.902 E0.01176
G1 X186.936 Y65.254 E0.01150
G1 X186.788 Y65.598 E0.01175
G1 X186.588 Y65.920 E0.01188
G1 X186.352 Y66.217 E0.01191
G1 X186.076 Y66.478 E0.01191
G1 X185.776 Y66.702 E0.01173
G1 X185.442 Y66.880 E0.01185
G1 X185.157 Y66.997 E0.00966
G1 X184.794 Y67.093 E0.01179
G1 X184.503 Y67.140 E0.00924
G1 X184.146 Y67.151 E0.01119
G1 X183.837 Y67.123 E0.00974
G1 X183.519 Y67.056 E0.01019
G1 X183.106 Y66.877 E0.01412
G1 X182.711 Y66.550 E0.01608
G1 X182.539 Y66.354 E0.00818
G1 X182.313 Y66.154 E0.00946
G1 X182.185 Y65.996 E0.00638
G1 X182.185 Y66.289 E0.00920
G1 X182.243 Y66.768 E0.01515
G1 X182.337 Y67.272 E0.01605
G1 X182.377 Y67.790 E0.01629
G1 X182.386 Y71.202 E0.10698
G1 X157.966 Y71.202 E0.76567
G1 X157.973 Y67.848 E0.10517
G1 X158.010 Y67.342 E0.01590
G1 X158.166 Y66.371 E0.03084
G1 X158.166 Y66.075 E0.00926
G1 X157.520 Y66.717 E0.02855
G1 X157.087 Y66.985 E0.01597
G1 X156.738 Y67.099 E0.01149
G1 X156.346 Y67.159 E0.01245
G1 X155.938 Y67.158 E0.01279
G1 X155.412 Y67.071 E0.01670
G1 X155.167 Y66.994 E0.00806
G1 X154.849 Y66.856 E0.01086
G1 X154.536 Y66.672 E0.01141
G1 X154.245 Y66.448 E0.01151
G1 X154.036 Y66.249 E0.00903
G1 X153.690 Y65.798 E0.01784
G1 X153.441 Y65.297 E0.01755
G1 X153.300 Y64.790 E0.01648
G1 X153.263 Y64.509 E0.00888
G1 X153.259 Y64.112 E0.01247
G1 X153.298 Y63.746 E0.01154
G1 X153.386 Y63.396 E0.01132
G1 X153.515 Y63.052 E0.01150
G1 X153.695 Y62.724 E0.01173
G1 X153.908 Y62.424 E0.01153
G1 X154.085 Y62.227 E0.00831
G1 X154.326 Y62.008 E0.01020
G1 X154.662 Y61.773 E0.01286
G1 X155.077 Y61.568 E0.01451
G1 X155.359 Y61.468 E0.00941
G1 X155.644 Y61.403 E0.00917
G1 X156.043 Y61.358 E0.01258
G1 X156.442 Y61.373 E0.01251
G1 X156.853 Y61.454 E0.01312
G1 X157.223 Y61.604 E0.01252
G1 X157.550 Y61.835 E0.01255
G1 X157.780 Y62.101 E0.01103
G1 X157.996 Y62.277 E0.00876
G1 X158.166 Y62.450 E0.00759
G1 X158.166 Y62.162 E0.00902
G1 X158.105 Y61.698 E0.01469
G1 X158.013 Y61.208 E0.01562
G1 X157.973 Y60.705 E0.01583
G1 X157.966 Y57.443 E0.10229
G1 X157.964 Y56.983 F10800.000
G1 F8640.000
G1 X161.257 Y57.435 E-0.76000
G1 E-0.04000 F2100.00000
G1 Z0.600 F10800.000
G1 X102.589 Y57.006
G1 Z0.200
G1 E0.80000 F2100.00000
G1 F1200.000
G1 X127.766 Y57.006 E0.78940
G1 X127.757 Y60.781 E0.11838
G1 X127.715 Y61.328 E0.01721
G1 X127.676 Y61.537 E0.00666
G1 X128.095 Y61.267 E0.01565
G1 X128.643 Y61.093 E0.01800
G1 X129.246 Y61.042 E0.01897
G1 X129.682 Y61.075 E0.01371
G1 X130.041 Y61.150 E0.01151
G1 X130.475 Y61.296 E0.01434
G1 X130.987 Y61.566 E0.01815
G1 X131.265 Y61.767 E0.01077
G1 X131.583 Y62.060 E0.01354
G1 X131.966 Y62.553 E0.01959
G1 X132.128 Y62.841 E0.01035
G1 X132.266 Y63.147 E0.01052
G1 X132.421 Y63.704 E0.01813
G1 X132.466 Y64.034 E0.01044
G1 X132.471 Y64.497 E0.01453
G1 X132.425 Y64.896 E0.01259
G1 X132.324 Y65.292 E0.01281
G1 X132.176 Y65.682 E0.01307
G1 X131.971 Y66.054 E0.01331
G1 X131.729 Y66.391 E0.01301
G1 X131.518 Y66.623 E0.00983
G1 X131.209 Y66.891 E0.01284
G1 X130.873 Y67.123 E0.01280
G1 X130.597 Y67.267 E0.00977
G1 X130.075 Y67.462 E0.01747
G1 X129.657 Y67.545 E0.01334
G1 X129.286 Y67.577 E0.01167
G1 X128.858 Y67.557 E0.01344
G1 X128.460 Y67.482 E0.01271
G1 X128.089 Y67.348 E0.01236
G1 X127.790 Y67.191 E0.01058
G1 X127.680 Y67.098 E0.00453
G1 X127.713 Y67.275 E0.00563
G1 X127.757 Y67.821 E0.01716
G1 X127.766 Y71.579 E0.11783
G1 X102.589 Y71.579 E0.78940
G1 X102.597 Y67.872 E0.11622
G1 X102.637 Y67.343 E0.01664
G1 X102.673 Y67.121 E0.00705
G1 X102.225 Y67.393 E0.01644
G1 X101.662 Y67.553 E0.01835
G1 X101.290 Y67.591 E0.01172
G1 X100.886 Y67.582 E0.01268
G1 X100.512 Y67.527 E0.01186
G1 X100.066 Y67.404 E0.01447
G1 X99.551 Y67.168 E0.01778
G1 X99.199 Y66.937 E0.01321
G1 X98.891 Y66.676 E0.01267
G1 X98.656 Y66.428 E0.01069
G1 X98.310 Y65.932 E0.01897
G1 X98.164 Y65.636 E0.01033
G1 X98.039 Y65.309 E0.01098
G1 X97.914 Y64.777 E0.01713
G1 X97.885 Y64.450 E0.01029
G1 X97.898 Y63.990 E0.01443
G1 X97.959 Y63.591 E0.01266
G1 X98.075 Y63.200 E0.01281
G1 X98.234 Y62.824 E0.01278
G1 X98.461 Y62.446 E0.01384
G1 X98.722 Y62.109 E0.01336
G1 X99.038 Y61.805 E0.01373
G1 X99.568 Y61.432 E0.02031
G1 X100.130 Y61.185 E0.01925
G1 X100.620 Y61.062 E0.01586
G1 X101.021 Y61.021 E0.01261
G1 X101.424 Y61.029 E0.01264
G1 X101.725 Y61.071 E0.00953
G1 X102.226 Y61.220 E0.01641
G1 X102.673 Y61.485 E0.01628
G1 X102.636 Y61.259 E0.00718
G1 X102.597 Y60.727 E0.01672
G1 X102.589 Y57.066 E0.11481
G1 X102.967 Y57.383 F10800.000
G1 F1200.000
G1 X127.388 Y57.383 E0.76570
G1 X127.380 Y60.766 E0.10608
G1 X127.340 Y61.279 E0.01614
G1 X127.248 Y61.779 E0.01592
G1 X127.187 Y62.254 E0.01502
G1 X127.187 Y62.537 E0.00887
G1 X127.810 Y61.899 E0.02795
G1 X128.257 Y61.611 E0.01668
G1 X128.717 Y61.466 E0.01512
G1 X129.248 Y61.420 E0.01670
G1 X129.629 Y61.449 E0.01199
G1 X129.942 Y61.514 E0.01004
G1 X130.326 Y61.643 E0.01268
G1 X130.787 Y61.887 E0.01637
G1 X131.026 Y62.060 E0.00925
G1 X131.305 Y62.316 E0.01185
G1 X131.651 Y62.762 E0.01771
G1 X131.910 Y63.276 E0.01805
G1 X132.051 Y63.780 E0.01641
G1 X132.089 Y64.061 E0.00889
G1 X132.093 Y64.478 E0.01307
G1 X132.053 Y64.828 E0.01105
G1 X131.964 Y65.178 E0.01134
G1 X131.833 Y65.523 E0.01156
G1 X131.651 Y65.852 E0.01177
G1 X131.436 Y66.153 E0.01162
G1 X131.254 Y66.352 E0.00844
G1 X130.978 Y66.592 E0.01149
G1 X130.677 Y66.799 E0.01143
G1 X130.443 Y66.922 E0.00831
G1 X129.971 Y67.098 E0.01577
G1 X129.604 Y67.171 E0.01174
G1 X129.279 Y67.199 E0.01023
G1 X128.902 Y67.181 E0.01184
G1 X128.559 Y67.117 E0.01093
G1 X128.242 Y67.002 E0.01059
G1 X128.002 Y66.876 E0.00851
G1 X127.773 Y66.685 E0.00934
G1 X127.548 Y66.420 E0.01092
G1 X127.187 Y66.082 E0.01549
G1 X127.187 Y66.358 E0.00867
G1 X127.244 Y66.830 E0.01489
G1 X127.339 Y67.325 E0.01582
G1 X127.379 Y67.836 E0.01606
G1 X127.388 Y71.202 E0.10553
G1 X102.967 Y71.202 E0.76570
G1 X102.974 Y67.887 E0.10394
G1 X103.012 Y67.387 E0.01570
G1 X103.167 Y66.429 E0.03042
G1 X103.167 Y66.137 E0.00918
G1 X102.837 Y66.440 E0.01405
G1 X102.512 Y66.778 E0.01470
G1 X102.073 Y67.044 E0.01611
G1 X101.591 Y67.181 E0.01571
G1 X101.275 Y67.214 E0.00995
G1 X100.918 Y67.206 E0.01120
G1 X100.590 Y67.157 E0.01041
G1 X100.196 Y67.049 E0.01281
G1 X99.734 Y66.838 E0.01592
G1 X99.425 Y66.635 E0.01158
G1 X99.150 Y66.402 E0.01130
G1 X98.950 Y66.189 E0.00916
G1 X98.636 Y65.739 E0.01721
G1 X98.510 Y65.485 E0.00889
G1 X98.400 Y65.198 E0.00962
G1 X98.288 Y64.717 E0.01551
G1 X98.262 Y64.439 E0.00876
G1 X98.274 Y64.025 E0.01299
G1 X98.328 Y63.674 E0.01112
G1 X98.430 Y63.327 E0.01134
G1 X98.571 Y62.996 E0.01128
G1 X98.773 Y62.659 E0.01231
G1 X99.004 Y62.362 E0.01180
G1 X99.279 Y62.097 E0.01197
G1 X99.754 Y61.762 E0.01822
G1 X100.252 Y61.543 E0.01707
G1 X100.686 Y61.435 E0.01402
G1 X101.036 Y61.399 E0.01105
G1 X101.394 Y61.405 E0.01122
G1 X101.645 Y61.440 E0.00793
G1 X102.074 Y61.568 E0.01405
G1 X102.519 Y61.832 E0.01624
G1 X102.688 Y62.030 E0.00814
G1 X103.004 Y62.311 E0.01329
G1 X103.167 Y62.493 E0.00764
G1 X103.167 Y62.178 E0.00987
G1 X103.011 Y61.215 E0.03059
G1 X102.974 Y60.713 E0.01578
G1 X102.967 Y57.443 E0.10253
G1 X102.965 Y56.983 F10800.000
G1 F8640.000
G1 X106.258 Y57.435 E-0.76000
G1 E-0.04000 F2100.00000
G1 Z0.600 F10800.000
G1 X102.967 Y52.915
G1 Z0.200
G1 E0.80000 F2100.00000
G1 F1200.000
G1 X130.254 Y52.916 E0.85557
G1 X130.740 Y52.961 E0.01531
G1 X131.202 Y53.073 E0.01491
G1 X131.652 Y53.256 E0.01523
G1 X131.904 Y53.395 E0.00903
G1 X136.063 Y56.162 E0.15663
G1 X136.388 Y56.352 E0.01180
G1 X137.031 Y56.636 E0.02204
G1 X137.426 Y56.759 E0.01299
G1 X137.981 Y56.868 E0.01771
G1 X138.460 Y56.912 E0.01508
G1 X147.351 Y56.911 E0.27878
G1 X147.819 Y56.876 E0.01470
G1 X148.206 Y56.810 E0.01231
G1 X148.845 Y56.629 E0.02083
G1 X149.473 Y56.347 E0.02159
G1 X149.790 Y56.162 E0.01150
G1 X153.839 Y53.465 E0.15254
G1 X154.092 Y53.313 E0.00927
G1 X154.613 Y53.088 E0.01779
G1 X155.363 Y52.930 E0.02402
G1 X156.276 Y52.915 E0.02863
G1 X185.471 Y52.916 E0.91540
G1 X186.690 Y52.955 E0.03823
G1 X187.257 Y53.016 E0.01787
G1 X187.760 Y53.097 E0.01599
G1 X188.542 Y53.262 E0.02505
G1 X189.102 Y53.416 E0.01823
G1 X189.952 Y53.709 E0.02819
G1 X190.484 Y53.930 E0.01805
G1 X191.014 Y54.182 E0.01842
G1 X191.529 Y54.459 E0.01832
G1 X192.031 Y54.764 E0.01840
G1 X192.741 Y55.256 E0.02711
G1 X193.198 Y55.616 E0.01822
G1 X193.628 Y55.991 E0.01791
G1 X194.033 Y56.381 E0.01763
G1 X194.615 Y57.013 E0.02693
G1 X195.110 Y57.634 E0.02491
G1 X195.484 Y58.165 E0.02036
G1 X195.907 Y58.858 E0.02545
G1 X196.148 Y59.300 E0.01578
G1 X196.464 Y59.972 E0.02329
G1 X196.683 Y60.515 E0.01837
G1 X196.875 Y61.067 E0.01831
G1 X197.112 Y61.920 E0.02777
G1 X197.230 Y62.481 E0.01795
G1 X197.359 Y63.350 E0.02755
G1 X197.407 Y63.916 E0.01783
G1 X197.428 Y64.485 E0.01785
G1 X197.421 Y65.052 E0.01777
G1 X197.387 Y65.616 E0.01771
G1 X197.276 Y66.482 E0.02739
G1 X197.112 Y67.333 E0.02715
G1 X196.873 Y68.177 E0.02751
G1 X196.576 Y69.013 E0.02781
G1 X196.211 Y69.817 E0.02770
G1 X195.796 Y70.592 E0.02755
G1 X195.486 Y71.085 E0.01826
G1 X195.153 Y71.563 E0.01825
G1 X194.802 Y72.018 E0.01805
G1 X194.378 Y72.508 E0.02031
G1 X193.833 Y73.070 E0.02455
G1 X193.417 Y73.451 E0.01769
G1 X192.742 Y73.993 E0.02714
G1 X192.030 Y74.490 E0.02724
G1 X191.270 Y74.933 E0.02757
G1 X190.480 Y75.325 E0.02765
G1 X189.941 Y75.549 E0.01831
G1 X189.387 Y75.748 E0.01844
G1 X188.826 Y75.918 E0.01838
G1 X188.262 Y76.058 E0.01822
G1 X187.253 Y76.237 E0.03211
G1 X186.104 Y76.332 E0.03617
G1 X184.789 Y76.339 E0.04123
G1 X156.272 Y76.339 E0.89414
G1 X155.593 Y76.338 E0.02127
G1 X155.231 Y76.311 E0.01139
G1 X154.768 Y76.217 E0.01483
G1 X154.318 Y76.052 E0.01502
G1 X153.885 Y75.818 E0.01542
G1 X149.790 Y73.091 E0.15427
G1 X149.467 Y72.903 E0.01171
G1 X148.828 Y72.620 E0.02191
